X: 1376
T: An Seanchai Muimhneach
R: jig
M: 6/8
K: Edorian
B2 E EFA|B2 A Bcd|B2 E EFA|BAG FED|
B2 E EFA|B2 A Bcd|AFD DEF|FAG FED:|
g2 e fed|e2 B BAF|B2 E EFA|BAG FED|
gfe fed|edB (B/c/d)B|AFD DEF|FAG FED:|
E3 EFE|EFE E2 D|EFE EFA|BAG FED|
E3 EFE|EFE (B/c/d)B|AFD DEF|FAG FED:|

